svg/awslambda.svg

<svg viewBox="0 0 20 20" xmlns="http://www.w3.org/2000/svg">
<rect width="100%" height="100%" fill="#D86613"/>
<path d="M15.2405 13.16H16.4105L16.4205 13.15C16.5705 13.15 16.6905 13.27 16.6905 13.42V16.47C16.6905 16.62 16.5705 16.74 16.4205 16.74H12.9605C12.8505 16.74 12.7605 16.68 12.7105 16.59L7.74047 6.36H5.75047C5.60047 6.36 5.48047 6.24 5.48047 6.09V3.02C5.48047 2.87 5.60047 2.75 5.75047 2.75H10.0305C10.1305 2.75 10.2205 2.81 10.2705 2.9L15.2405 13.16Z" fill="white"/>
<path d="M7.29054 8.19995C7.40054 8.19995 7.49054 8.25995 7.54054 8.34995H7.56054L9.36054 12.07C9.39054 12.14 9.39054 12.23 9.36054 12.3L7.40054 16.57C7.35054 16.67 7.26054 16.7299 7.15054 16.7299H3.53054C3.44054 16.7299 3.35054 16.68 3.30054 16.6C3.25054 16.52 3.24054 16.42 3.28054 16.34L7.05054 8.35995C7.09054 8.25995 7.19054 8.19995 7.29054 8.19995Z" fill="white"/>
</svg>

<svg xmlns="http://www.w3.org/2000/svg" viewBox="0 0 20 20">
  <rect width="100%" height="100%" fill="#D86613"/>
  <path fill="#fff" d="M15.24 13.16h1.17l.01-.01c.15 0 .27.12.27.27v3.05c0 .15-.12.27-.27.27h-3.46a.28.28 0 0 1-.25-.15L7.74 6.36H5.75a.27.27 0 0 1-.27-.27V3.02c0-.15.12-.27.27-.27h4.28c.1 0 .2.06.24.15l4.97 10.26Z"/>
  <path fill="#fff" d="M7.3 8.2c.1 0 .2.06.24.15h.02l1.8 3.72a.3.3 0 0 1 0 .23L7.4 16.57a.27.27 0 0 1-.25.16H3.53a.28.28 0 0 1-.23-.13.27.27 0 0 1-.02-.26l3.77-7.98c.04-.1.14-.16.24-.16Z"/>
</svg>
